X:1254
T:Bayrisch Polka 
C:Rudolf Heidinger
S:Oberoesterreichisches Volksliedwerk OVLA MII L9
A:Pstlingberg
Z:abc transcription Simon Wascher
N:please mail errors to: simon.wascher@chello.at
M:2/4
L:1/16
K:G
(3dcd|e2F2F2 (3cBc|d2=G2 G2AG|FGAB cdef|g2f2e2 (3dcd|
e2F2F2 (3cBc|d2G2 G2AG|FGAB cdef|g2g2g2:|
|:G2|B2B2 c2B2|B2A2A4|ddz2 ccz2|BBz2G4|
B2B2 c2B2|B2A2A4|dddd dcBA|G2G2G2:|
K:C
|:"Trio"G2|e2eB c2cA|GAGF E2G2|G2fe d2G2|G2ed c2G2|
e2eB c2cA|GAGF E2G2|G2fe dABc|c2c2c2:|
